lib/brands/icons/google-classroom.svg

<svg xmlns="http://www.w3.org/2000/svg" fill="none" aria-hidden="true" viewBox="0 0 48 48"><g id="google-classroom-Icon"><g id="Group"><path id="Vector" fill="#0F9D58" d="M9.27051 11.7264H38.7234V36.2674H9.27051V11.7264Z"/><path id="Vector_2" fill="#57BB8A" d="M30.5411 24.8207C31.5608 24.8207 32.3815 23.9938 32.3815 22.9803C32.3815 21.9668 31.5546 21.1399 30.5411 21.1399C29.5276 21.1399 28.7007 21.9668 28.7007 22.9803C28.7007 23.9938 29.5276 24.8207 30.5411 24.8207ZM30.5411 26.0456C28.5701 26.0456 26.4499 27.0902 26.4499 28.3834V29.7264H34.6323V28.3834C34.6323 27.0902 32.5121 26.0456 30.5411 26.0456ZM17.453 24.8207C18.4727 24.8207 19.2934 23.9938 19.2934 22.9803C19.2934 21.9668 18.4665 21.1399 17.453 21.1399C16.4395 21.1399 15.6126 21.9668 15.6126 22.9803C15.6126 23.9938 16.4395 24.8207 17.453 24.8207ZM17.453 26.0456C15.482 26.0456 13.3618 27.0902 13.3618 28.3834V29.7264H21.5442V28.3834C21.5442 27.0902 19.424 26.0456 17.453 26.0456Z"/><path id="Vector_3" fill="#F7F7F7" d="M23.9999 23.1793C25.3553 23.1793 26.4558 22.0788 26.4496 20.7233C26.4496 19.3679 25.3491 18.2674 23.9936 18.2736C22.6382 18.2736 21.5439 19.3741 21.5439 20.7295C21.5439 22.085 22.6444 23.1793 23.9999 23.1793ZM23.9999 24.8207C21.2392 24.8207 18.2734 26.2881 18.2734 28.0912V29.7264H29.7263V28.0912C29.7263 26.2819 26.7605 24.8207 23.9999 24.8207Z"/><path id="Vector_4" fill="#F1F1F1" d="M27.2705 34.6384H34.6322V36.2736H27.2705V34.6384Z"/><path id="Vector_5" fill="#F4B400" d="M39.544 8.45596H8.45596C7.10052 8.45596 6 9.55647 6 10.9119V37.0943C6 38.4435 7.10052 39.544 8.45596 39.544H39.544C40.8995 39.544 42 38.4435 42 37.0881V10.9119C41.9938 9.55647 40.8995 8.45596 39.544 8.45596ZM38.7233 36.2736H9.27047V11.7264H38.7233V36.2736Z"/><path id="Vector_6" fill="white" d="M39.544 8.45596H8.45596C7.10052 8.45596 6 9.55647 6 10.9119V11.1171C6 9.76166 7.10052 8.66114 8.45596 8.66114H39.544C40.8995 8.66114 42 9.76166 42 11.1171V10.9119C41.9938 9.55647 40.8995 8.45596 39.544 8.45596Z" opacity="0.2"/><path id="Vector_7" fill="#BF360C" d="M39.544 39.3389H8.45596C7.10052 39.3389 6 38.2383 6 36.8829V37.0881C6 38.4435 7.10052 39.544 8.45596 39.544H39.544C40.8995 39.544 42 38.4435 42 37.0881V36.8829C41.9938 38.2383 40.8995 39.3389 39.544 39.3389Z" opacity="0.2"/><path id="Vector_8" fill="url(#paint0_linear_94_17994)" d="M34.6195 36.2736H27.2578L30.5283 39.544H37.8837L34.6195 36.2736Z"/><path id="Vector_9" fill="#263238" d="M9.27051 11.5212H38.7234V11.7264H9.27051V11.5212Z" opacity="0.2"/><path id="Vector_10" fill="white" d="M9.27051 36.2736H38.7234V36.4787H9.27051V36.2736Z" opacity="0.2"/><path id="Vector_11" fill="url(#paint1_radial_94_17994)" d="M39.544 8.45596H8.45596C7.10052 8.45596 6 9.55647 6 10.9119V37.0943C6 38.4435 7.10052 39.544 8.45596 39.544H39.544C40.8995 39.544 42 38.4435 42 37.0881V10.9119C41.9938 9.55647 40.8995 8.45596 39.544 8.45596Z"/></g></g><defs><linearGradient id="paint0_linear_94_17994" x1="32.5727" x2="32.5727" y1="36.317" y2="39.5782" gradientUnits="userSpaceOnUse"><stop stop-color="#BF360C" stop-opacity="0.2"/><stop offset="1" stop-color="#BF360C" stop-opacity="0.02"/></linearGradient><radialGradient id="paint1_radial_94_17994" cx="0" cy="0" r="1" gradientTransform="matrix(42.9932 0 0 42.993 7.24 9.185)" gradientUnits="userSpaceOnUse"><stop stop-color="white" stop-opacity="0.1"/><stop offset="1" stop-color="white" stop-opacity="0"/></radialGradient></defs></svg>

<svg xmlns="http://www.w3.org/2000/svg" fill="none" aria-hidden="true" viewBox="0 0 48 48"><path fill="#0F9D58" d="M9.27 11.726h29.453v24.541H9.271v-24.54Z"/><path fill="#57BB8A" d="M30.541 24.82a1.84 1.84 0 1 0 0-3.68 1.84 1.84 0 0 0 0 3.68Zm0 1.226c-1.97 0-4.091 1.044-4.091 2.337v1.343h8.182v-1.343c0-1.293-2.12-2.337-4.09-2.337ZM17.453 24.82a1.84 1.84 0 1 0 0-3.68 1.84 1.84 0 0 0 0 3.68Zm0 1.225c-1.971 0-4.091 1.044-4.091 2.337v1.343h8.182v-1.343c0-1.293-2.12-2.337-4.091-2.337Z"/><path fill="#F7F7F7" d="M24 23.18a2.45 2.45 0 0 0 2.45-2.457c0-1.355-1.1-2.456-2.456-2.45A2.452 2.452 0 1 0 24 23.18Zm0 1.64c-2.76 0-5.727 1.468-5.727 3.271v1.635h11.453v-1.635c0-1.81-2.965-3.27-5.726-3.27Z"/><path fill="#F1F1F1" d="M27.27 34.638h7.362v1.636h-7.361v-1.636Z"/><path fill="#F4B400" d="M39.544 8.456H8.456A2.457 2.457 0 0 0 6 10.912v26.182c0 1.35 1.1 2.45 2.456 2.45h31.088c1.356 0 2.456-1.1 2.456-2.456V10.912a2.461 2.461 0 0 0-2.456-2.456Zm-.82 27.818H9.27V11.726h29.453v24.548Z"/><path fill="#fff" d="M39.544 8.456H8.456A2.457 2.457 0 0 0 6 10.912v.205c0-1.355 1.1-2.456 2.456-2.456h31.088c1.356 0 2.456 1.1 2.456 2.456v-.205a2.461 2.461 0 0 0-2.456-2.456Z" opacity=".2"/><path fill="#BF360C" d="M39.544 39.339H8.456A2.457 2.457 0 0 1 6 36.883v.205c0 1.355 1.1 2.456 2.456 2.456h31.088c1.356 0 2.456-1.1 2.456-2.456v-.205a2.461 2.461 0 0 1-2.456 2.456Z" opacity=".2"/><path fill="url(#a)" d="M34.62 36.274h-7.362l3.27 3.27h7.356l-3.264-3.27Z"/><path fill="#263238" d="M9.27 11.521h29.453v.205H9.271v-.205Z" opacity=".2"/><path fill="#fff" d="M9.27 36.274h29.453v.205H9.271v-.205Z" opacity=".2"/><path fill="url(#b)" d="M39.544 8.456H8.456A2.457 2.457 0 0 0 6 10.912v26.182c0 1.35 1.1 2.45 2.456 2.45h31.088c1.356 0 2.456-1.1 2.456-2.456V10.912a2.461 2.461 0 0 0-2.456-2.456Z"/><defs><radialGradient id="b" cx="0" cy="0" r="1" gradientTransform="matrix(42.9932 0 0 42.993 7.24 9.185)" gradientUnits="userSpaceOnUse"><stop stop-color="#fff" stop-opacity=".1"/><stop offset="1" stop-color="#fff" stop-opacity="0"/></radialGradient><linearGradient id="a" x1="32.573" x2="32.573" y1="36.317" y2="39.578" gradientUnits="userSpaceOnUse"><stop stop-color="#BF360C" stop-opacity=".2"/><stop offset="1" stop-color="#BF360C" stop-opacity=".02"/></linearGradient></defs></svg>
